!!!OTL: MAIENBLUEMLEIN SO SCHOEN
!!!ARE: Europa, Mitteleuropa, Deutschland
!!!SCT: B0213
!!!YEM: Copyright 1995, estate of Helmut Schaffrath.
**kern
*ICvox
*Ivox
*M3/8
*k[]
*C:
=1
{8C
8E
8F#
=2
8G
16A
16B
8c}
=3
{8c
8A
8d
=4
16B
16c
16A
16B
8G}
=5
{8G
8B
8c
=6
4c#
8d}
=7
{8G
8B
8c
=8
4c#
8d}
=9
{8C
8E
8G
=10
8G#
8F#
8G#
=11
4A
8B
=12
4c
8r}
=13
{8.e
16d
8c
=14
8B
8A
8G
=15
4.G
=16
4c
8r}
==
!!!AGN: Jahreszeiten - Lied, Fruehling
!!!ONB: ESAC (Essen Associative Code) Database: BOEHME
!!!AMT: simple triple
!!!AIN: vox
!!!EED: Helmut Schaffrath
!!!EEV: 1.0
*-
